X: 29
M:6/8
L:1/16
K:G
|:de|fedefd fedefd|fedefd e2d2c2|BAGABc d2e2f2|gfefge d2B2G2|
gbagfe fagfed|egfedB AcBAGE|GDGBAc B2BAGE|A2G2G2 G4:|

